src/public/assets/tokens/ae.svg

<svg width="24" height="24" viewBox="0 0 24 24" fill="none" xmlns="http://www.w3.org/2000/svg">
<path d="M5.182 6.3H6.168C7.70987 6.47729 9.13698 7.20185 10.19 8.342C12.381 10.642 13.59 13.886 16.373 15.597C16.8753 15.87 17.4277 16.0384 17.9968 16.0921C18.566 16.1458 19.1401 16.0837 19.6846 15.9095C20.2291 15.7353 20.7327 15.4527 21.165 15.0786C21.5973 14.7045 21.9494 14.2468 22.2 13.733C22.7 13.723 23.21 13.723 23.714 13.726C23.3489 14.7725 22.6907 15.6921 21.818 16.3753C20.9452 17.0586 19.8946 17.4767 18.791 17.58H17.978C16.6078 17.476 15.307 16.936 14.266 16.039C12.8938 14.6617 11.6809 13.1344 10.65 11.486C9.65 10.118 8.63 8.58 6.977 7.958C5.94856 7.61912 4.82951 7.68588 3.84865 8.14462C2.86778 8.60336 2.09919 9.41943 1.7 10.426C1.41393 11.1728 1.34629 11.9856 1.50496 12.7695C1.66364 13.5533 2.04208 14.2758 2.59609 14.8526C3.15009 15.4293 3.85678 15.8365 4.63359 16.0266C5.41041 16.2167 6.22528 16.1818 6.983 15.926C8.40472 15.3171 9.59141 14.2647 10.366 12.926C10.695 13.396 11.014 13.874 11.331 14.354C10.72 15.215 9.94199 15.9444 9.04333 16.4986C8.14467 17.0528 7.1437 17.4206 6.1 17.58H5.221C3.88199 17.4644 2.62599 16.8826 1.6719 15.936C0.717814 14.9894 0.126142 13.7381 0 12.4L0 11.513C0.116488 10.1748 0.699042 8.91987 1.64606 7.96719C2.59308 7.0145 3.84448 6.42447 5.182 6.3" fill="#0050db"/>
<path d="M17.7769 6.3H18.6149C19.9937 6.42606 21.2856 7.02867 22.2682 8.00417C23.2508 8.97967 23.8628 10.2671 23.9989 11.645V13.066C21.6989 13.088 19.3989 13.073 17.0989 13.076C17.0989 12.66 17.0989 12.247 17.0989 11.832C18.9159 11.832 20.7299 11.839 22.5449 11.832C22.4592 11.084 22.21 10.3639 21.8149 9.723C21.2609 8.93073 20.4591 8.3452 19.5358 8.05862C18.6125 7.77203 17.6201 7.80066 16.7148 8.14C15.3222 8.74544 14.1545 9.77226 13.3759 11.076C13.0559 10.616 12.7389 10.152 12.4319 9.682C13.0466 8.78498 13.8375 8.02252 14.7565 7.44108C15.6754 6.85964 16.703 6.47139 17.7769 6.3" fill="#0050db"/>
</svg>

<svg id="Слой_1" data-name="Слой 1" xmlns="http://www.w3.org/2000/svg" viewBox="0 0 24 24"><title>AEМонтажная область 1</title><path d="M5.18,6.3h1a6.49,6.49,0,0,1,4,2c2.19,2.3,3.4,5.55,6.18,7.26a4.28,4.28,0,0,0,1.63.49,4.15,4.15,0,0,0,1.68-.18,4.17,4.17,0,0,0,2.52-2.18h1.51a5.75,5.75,0,0,1-4.92,3.85H18A6.38,6.38,0,0,1,14.27,16a25.94,25.94,0,0,1-3.62-4.55C9.65,10.12,8.63,8.58,7,8A4.23,4.23,0,0,0,1.7,10.43a4.24,4.24,0,0,0-.2,2.34A4.27,4.27,0,0,0,4.63,16,4.27,4.27,0,0,0,7,15.93a7.27,7.27,0,0,0,3.39-3l1,1.42A7.86,7.86,0,0,1,6.1,17.58H5.22A5.73,5.73,0,0,1,0,12.4v-.89A5.72,5.72,0,0,1,1.65,8,5.64,5.64,0,0,1,5.18,6.3"/><path d="M17.78,6.3h.84A5.95,5.95,0,0,1,24,11.64v1.43c-2.3,0-4.6,0-6.9,0V11.83h5.45a5.26,5.26,0,0,0-.73-2.11,4.42,4.42,0,0,0-2.28-1.66,4.33,4.33,0,0,0-2.82.08,7.18,7.18,0,0,0-3.34,2.94c-.32-.46-.64-.93-1-1.4A8,8,0,0,1,17.78,6.3"/></svg>
